packages/icons/src/assets/thumbs-up.svg

<svg width="16" height="16" viewBox="0 0 16 16" fill="none" xmlns="http://www.w3.org/2000/svg">
<path d="M9.64746 1.375C10.2148 1.3751 10.7612 1.59623 11.166 1.99316C11.5713 2.39059 11.8018 2.93255 11.8018 3.5V6.62305H13.4707C14.038 6.62308 14.5844 6.84436 14.9893 7.24121C15.3946 7.63865 15.625 8.18056 15.625 8.74805C15.625 8.78998 15.6207 8.83196 15.6123 8.87305L14.8477 12.6221C14.8463 12.6288 14.8444 12.6359 14.8428 12.6426C14.7116 13.191 14.4549 13.699 14.0781 14.0684C13.7082 14.431 13.2283 14.6475 12.7061 14.6201V14.6211H7.35254C6.66791 14.621 6.00703 14.3834 5.4834 13.9531C5.42438 14.0504 5.35497 14.1417 5.27246 14.2227C5.01094 14.4791 4.65858 14.6211 4.29395 14.6211H2.76465C2.40003 14.6211 2.04764 14.4791 1.78613 14.2227C1.52451 13.966 1.37512 13.6154 1.375 13.2471V7.99805C1.37504 7.62947 1.52423 7.27828 1.78613 7.02148C2.04764 6.76508 2.40003 6.62306 2.76465 6.62305H5.05859C5.70799 6.62305 6.32866 6.37043 6.78418 5.92383C7.23929 5.47761 7.49219 4.87465 7.49219 4.24902V3.5C7.49219 2.93259 7.72268 2.39059 8.12793 1.99316C8.53286 1.59614 9.08001 1.375 9.64746 1.375ZM9.64746 2.625C9.40366 2.625 9.17164 2.72033 9.00293 2.88574C8.8348 3.05072 8.74219 3.27219 8.74219 3.5V4.24902C8.74219 5.21422 8.35135 6.13775 7.65918 6.81641C7.1173 7.34765 6.42552 7.69367 5.68359 7.81934V11.7471L5.69141 11.9062C5.72874 12.2752 5.89524 12.6242 6.16797 12.8916C6.47999 13.1975 6.90608 13.371 7.35254 13.3711H12.7061L12.7578 13.374C12.8774 13.384 13.0336 13.342 13.2031 13.1758C13.3779 13.0044 13.5382 12.7228 13.627 12.3516L14.3721 8.69629C14.3592 8.48688 14.2698 8.28627 14.1143 8.13379C13.9456 7.96851 13.7144 7.87308 13.4707 7.87305H11.1768C10.8316 7.87305 10.5518 7.59323 10.5518 7.24805V3.5C10.5518 3.27215 10.4592 3.05073 10.291 2.88574C10.1224 2.72042 9.89111 2.6251 9.64746 2.625ZM2.76465 7.87305C2.72369 7.87306 2.68642 7.88927 2.66113 7.91406C2.63636 7.9384 2.62504 7.96905 2.625 7.99805V13.2471C2.62512 13.2758 2.63668 13.3059 2.66113 13.3301C2.68642 13.3549 2.72369 13.3711 2.76465 13.3711H4.29395C4.33493 13.3711 4.37217 13.3549 4.39746 13.3301C4.422 13.3059 4.43347 13.2759 4.43359 13.2471V7.87305H2.76465Z" fill="#0A0A0A"/>
</svg>

<svg xmlns="http://www.w3.org/2000/svg" width="16" height="16" viewBox="0 0 16 16"><path d="M9.647 1.375a2.17 2.17 0 0 1 1.519.618c.405.398.636.94.636 1.507v3.123h1.669a2.17 2.17 0 0 1 1.518.618c.406.398.636.94.636 1.507a.6.6 0 0 1-.013.125l-.764 3.75-.005.02c-.131.548-.388 1.056-.765 1.425-.37.363-.85.58-1.372.552v.001H7.353a2.95 2.95 0 0 1-1.87-.668 1.37 1.37 0 0 1-1.189.668h-1.53a1.4 1.4 0 0 1-.978-.398 1.37 1.37 0 0 1-.411-.976V7.998c0-.369.15-.72.411-.977a1.4 1.4 0 0 1 .979-.398h2.294c.649 0 1.27-.253 1.725-.7a2.34 2.34 0 0 0 .708-1.674V3.5c0-.567.23-1.11.636-1.507a2.17 2.17 0 0 1 1.52-.618m0 1.25a.92.92 0 0 0-.644.26.86.86 0 0 0-.26.615v.749c0 .965-.392 1.889-1.084 2.567A3.7 3.7 0 0 1 5.684 7.82v3.928l.007.16c.038.368.204.717.477.985.312.306.738.479 1.185.48h5.353l.052.002c.12.01.276-.032.445-.198.175-.172.335-.453.424-.824l.745-3.656a.86.86 0 0 0-.258-.562.92.92 0 0 0-.643-.261h-2.294a.625.625 0 0 1-.625-.625V3.5a.86.86 0 0 0-.261-.614.92.92 0 0 0-.644-.261M2.765 7.873a.15.15 0 0 0-.104.041.12.12 0 0 0-.036.084v5.25c0 .028.012.058.036.082a.15.15 0 0 0 .104.041h1.529a.15.15 0 0 0 .103-.04.12.12 0 0 0 .037-.084V7.873z"/></svg>
